X:1
T:Early One Morning
M:4/4
L:1/4
K:C
 c2 c c| c- e g g| a f d c| B- d G2| c2 c c| c e g g| a- f d B| c4|\
 d2 e f| g- e c2| d2 e f| g- e c2| c- e g c'| b- a g- f| e- d c B|\
 c4|
